assets/svg/1F466.svg

<svg xmlns="http://www.w3.org/2000/svg" viewBox="0 0 64 64" enable-background="new 0 0 64 64"><path fill="#fbb042" d="m2.451 40.452c0 11.02 12.23 19.94 27.343 19.94 15.11 0 27.339-8.922 27.339-19.94 0-11.01-12.232-38.17-27.339-38.17-15.11 0-27.343 27.16-27.343 38.17"/><g fill="#25333a"><path d="m24.506 41.12c0 2.692-1.815 4.881-4.04 4.881-2.227 0-4.02-2.188-4.02-4.881 0-2.696 1.798-4.893 4.02-4.893 2.221.0001 4.04 2.197 4.04 4.893"/><path d="m43.632 41.12c0 2.692-1.81 4.881-4.02 4.881-2.235 0-4.03-2.188-4.03-4.881 0-2.696 1.791-4.893 4.03-4.893 2.214.0001 4.02 2.197 4.02 4.893"/></g><g opacity=".6"><path fill="#c37929" d="m26.563 50.91c0-1.534 1.306-1.505 3.087-1.505 1.79 0 3.362-.029 3.362 1.505 0 1.543-1.437 2.784-3.223 2.784-1.775 0-3.226-1.241-3.226-2.784"/></g><g fill="#633d19"><path d="m3.923 12.733c-1.819 3.919 5.107 24.18 5.393 21.344.851-8.51 1.294-4.642 5.908-19.487 1.525-4.933 6.218-10.647 3.682-10.802-3.609-.222-13.13 5.03-14.983 8.945"/><path d="m18.933 20.659c1.864 3.903 25.11 10.542 22.897 8.583-6.63-5.91-2.929-3.913-11.911-16.8-3-4.279-4.03-11.656-6.268-9.657-3.191 2.854-6.568 13.945-4.718 17.874"/><path d="m31.872 25.23c4.246 4.232 33.971 4.795 30.409 3.076-10.697-5.15-5.446-3.889-22.63-16.951-5.721-4.335-10.955-13.164-12.36-9.938-2 4.614.334 19.536 4.581 23.813"/><path d="m39.24 19.304c4.173 1.645 23.06-10.602 19.961-10.48-9.308.357-28.21-10.257-28.597-7.02-.537 4.617 4.462 15.822 8.636 17.498"/><path d="m45.512 24.18c4.174 1.639 21.06-10.605 17.961-10.482-9.315.359-26.21-10.258-26.591-7.02-.542 4.621 4.458 15.82 8.63 17.5"/><path d="m11.507 5.01c-3.101 4.242 1.729 35.978 2.594 32.524 2.617-10.352.649-6.941 9.333-23.869 2.876-5.626 8.175-11.654 4.697-12.539-3.872-.978-13.501-.354-16.624 3.884"/></g></svg>

<?xml version="1.0" encoding="UTF-8" standalone="no"?>
<!-- Generator: Adobe Illustrator 16.0.0, SVG Export Plug-In . SVG Version: 6.00 Build 0)  -->

<svg
   xmlns:dc="http://purl.org/dc/elements/1.1/"
   xmlns:cc="http://creativecommons.org/ns#"
   xmlns:rdf="http://www.w3.org/1999/02/22-rdf-syntax-ns#"
   xmlns:svg="http://www.w3.org/2000/svg"
   xmlns="http://www.w3.org/2000/svg"
   xmlns:sodipodi="http://sodipodi.sourceforge.net/DTD/sodipodi-0.dtd"
   xmlns:inkscape="http://www.inkscape.org/namespaces/inkscape"
   version="1.1"
   id="Layer_1"
   x="0px"
   y="0px"
   width="64px"
   height="64px"
   viewBox="0 0 64 64"
   enable-background="new 0 0 64 64"
   xml:space="preserve"
   inkscape:version="0.48.5 r10040"
   sodipodi:docname="1F466.svg"
   inkscape:export-filename="D:\TESTINGEMOJI\SVGTEST\1F466.png"
   inkscape:export-xdpi="90"
   inkscape:export-ydpi="90"><metadata
   id="metadata3227"><rdf:RDF><cc:Work
       rdf:about=""><dc:format>image/svg+xml</dc:format><dc:type
         rdf:resource="http://purl.org/dc/dcmitype/StillImage" /><dc:title></dc:title></cc:Work></rdf:RDF></metadata><defs
   id="defs3225" /><sodipodi:namedview
   pagecolor="#ffffff"
   bordercolor="#666666"
   borderopacity="1"
   objecttolerance="10"
   gridtolerance="10"
   guidetolerance="10"
   inkscape:pageopacity="0"
   inkscape:pageshadow="2"
   inkscape:window-width="640"
   inkscape:window-height="480"
   id="namedview3223"
   showgrid="false"
   inkscape:zoom="3.6875"
   inkscape:cx="32"
   inkscape:cy="32"
   inkscape:window-x="312"
   inkscape:window-y="131"
   inkscape:window-maximized="0"
   inkscape:current-layer="Layer_1" />
<g
   id="g3181">
	<g
   id="g3183">
		<path
   fill="#FBB042"
   d="M2.451,40.452c0,11.019,12.23,19.94,27.343,19.94c15.107,0,27.339-8.922,27.339-19.94    c0-11.009-12.232-38.17-27.339-38.17C14.681,2.282,2.451,29.443,2.451,40.452z"
   id="path3185" />
	</g>
	<g
   id="g3187">
		<path
   fill="#25333A"
   d="M24.506,41.117c0,2.692-1.815,4.881-4.036,4.881c-2.227,0-4.025-2.188-4.025-4.881    c0-2.696,1.798-4.893,4.025-4.893C22.691,36.225,24.506,38.421,24.506,41.117z"
   id="path3189" />
	</g>
	<g
   id="g3191">
		<path
   fill="#25333A"
   d="M43.632,41.117c0,2.692-1.81,4.881-4.024,4.881c-2.235,0-4.026-2.188-4.026-4.881    c0-2.696,1.791-4.893,4.026-4.893C41.822,36.225,43.632,38.421,43.632,41.117z"
   id="path3193" />
	</g>
	<g
   opacity="0.6"
   id="g3195">
		<path
   fill="#C37929"
   d="M26.563,50.91c0-1.534,1.306-1.505,3.087-1.505c1.79,0,3.362-0.029,3.362,1.505    c0,1.543-1.437,2.784-3.223,2.784C28.014,53.694,26.563,52.453,26.563,50.91z"
   id="path3197" />
	</g>
	<g
   id="g3199">
		<path
   fill="#633D19"
   d="M3.923,12.733C2.104,16.652,9.03,36.91,9.316,34.077c0.851-8.51,1.294-4.642,5.908-19.487    c1.525-4.933,6.218-10.647,3.682-10.802C15.297,3.566,5.775,8.816,3.923,12.733z"
   id="path3201" />
	</g>
	<g
   id="g3203">
		<path
   fill="#633D19"
   d="M18.933,20.659c1.864,3.903,25.113,10.542,22.897,8.583c-6.63-5.91-2.929-3.913-11.911-16.8    c-3-4.279-4.031-11.656-6.268-9.657C20.46,5.639,17.083,16.73,18.933,20.659z"
   id="path3205" />
	</g>
	<g
   id="g3207">
		<path
   fill="#633D19"
   d="M31.872,25.232c4.246,4.232,33.971,4.795,30.409,3.076c-10.697-5.15-5.446-3.889-22.63-16.951    C33.93,7.022,28.696-1.807,27.291,1.419C25.289,6.033,27.625,20.955,31.872,25.232z"
   id="path3209" />
	</g>
	<g
   id="g3211">
		<path
   fill="#633D19"
   d="M39.241,19.304c4.173,1.645,23.065-10.602,19.961-10.48C49.894,9.181,30.987-1.433,30.605,1.806    C30.068,6.423,35.067,17.628,39.241,19.304z"
   id="path3213" />
	</g>
	<g
   id="g3215">
		<path
   fill="#633D19"
   d="M45.512,24.185c4.174,1.639,21.063-10.605,17.961-10.482c-9.315,0.359-26.207-10.258-26.591-7.018    C36.34,11.306,41.34,22.505,45.512,24.185z"
   id="path3217" />
	</g>
	<g
   id="g3219">
		<path
   fill="#633D19"
   d="M11.507,5.013c-3.101,4.242,1.729,35.978,2.594,32.524c2.617-10.352,0.649-6.941,9.333-23.869    c2.876-5.626,8.175-11.654,4.697-12.539C24.259,0.151,14.63,0.775,11.507,5.013z"
   id="path3221" />
	</g>
</g>
</svg>
